X:184
T:Miss Hobarts Fancy. THO5.184
M:C
L:1/8
B:Thompson's Complete Collection of 200 Favourite Dances Vol.5
F:https://www.libraryofdance.org/manuals/1780c-Thompson-Compleat-5.pdf
Z:vmp. Peter Dunk 2024
Q:1/4=110
K:C
ec2e d c2G|Af/d/ e/c/d/B/ c/d/e/f/ g/e/f/d/|
ec2e dc2G|Af/d/ e/c/d/B/ c2C2:|\\
|:G>AGF EFG2|
Af/e/ dc B/c/d/B/ G2|\\
G>AGF EF G2|Af/d/ e/c/d/B/ c2C2:|
W:
W:The 1st Gent turn the 2nd Lady ./.
W:the 1st Lady turn the 2nd Gent ./:
W:Cross over one Couple :/.
W:Right & Left :/:

